Newaita-dark/apps/48/applications-fonts.svg

<svg height="48" viewBox="0 0 48 48" width="48" xmlns="http://www.w3.org/2000/svg" xmlns:xlink="http://www.w3.org/1999/xlink"><linearGradient id="a" gradientUnits="userSpaceOnUse" x1="23.81478" x2="23.81478" y1="42.0509045" y2="44.03547050005"><stop offset="0" stop-opacity=".27451"/><stop offset="1" stop-opacity="0"/></linearGradient><linearGradient id="b"><stop offset="0" stop-opacity=".313726"/><stop offset=".222222" stop-opacity=".27451"/><stop offset="1" stop-opacity="0"/></linearGradient><radialGradient id="c" cx="450.908936" cy="189.579361" gradientTransform="matrix(.00000026 -.117199 -.210958 -.00000015 73.234568 95.392999)" gradientUnits="userSpaceOnUse" r="21.166656" xlink:href="#b"/><radialGradient id="d" cx="450.908936" cy="189.579361" gradientTransform="matrix(-.00000026 .117199 .210958 .00000015 -26.597299 -11.291218)" gradientUnits="userSpaceOnUse" r="21.166656" xlink:href="#b"/><radialGradient id="e" cx="450.908936" cy="189.579361" gradientTransform="matrix(-.00000026 -.117199 .210958 -.00000015 -26.597299 95.392999)" gradientUnits="userSpaceOnUse" r="21.166656" xlink:href="#b"/><radialGradient id="f" cx="450.908936" cy="189.579361" gradientTransform="matrix(.00000026 .117199 -.210958 .00000015 73.234565 -11.291219)" gradientUnits="userSpaceOnUse" r="21.166656" xlink:href="#b"/><linearGradient id="g" gradientUnits="userSpaceOnUse" x1="23.3186456251" x2="22.82250375005" y1="42.0509005" y2="4.3441570001"><stop offset="0" stop-color="#42a5f5"/><stop offset="1" stop-color="#64b5f6"/></linearGradient><linearGradient id="h" gradientTransform="matrix(-.093759 0 0 -.093759 67.475195 -3.531633)" gradientUnits="userSpaceOnUse" x1="275.166656" x2="275.166656" y1="-84.000496" y2="-486.167145"><stop offset="0" stop-color="#616161"/><stop offset="1" stop-color="#424242"/></linearGradient><linearGradient id="i" gradientUnits="userSpaceOnUse" x1="23.318674" x2="23.318674" y1="32.12812580616" y2="14.26701229293"><stop offset="0" stop-color="#424242"/><stop offset="1" stop-color="#616161"/></linearGradient><path d="m11.039062 42.050781c-1.097656 0-1.984374-.886719-1.984374-1.984375v-.25c0 1.101563.886718 1.988282 1.984374 1.988282h24.683594c1.097656 0 1.984375-.886719 1.984375-1.988282v.25c0 1.097656-.886719 1.984375-1.984375 1.984375zm0 0" fill-opacity=".196078"/><path d="m12.898438 42.050781h20.839843v1.984375h-20.839843zm0 0" fill="url(#a)"/><path d="m33.738281 42.050781h3.96875v-1.984375h-3.96875zm0 0" fill="url(#c)"/><path d="m12.898438 42.050781h-3.96875v1.984375h3.96875zm0 0" fill="url(#d)"/><path d="m12.898438 42.050781h-3.96875v-1.984375h3.96875zm0 0" fill="url(#e)"/><path d="m33.738281 42.050781h3.96875v1.984375h-3.96875zm0 0" fill="url(#f)"/><path d="m29.769531 4.34375h-18.855469c-1.097656 0-1.984374.886719-1.984374 1.984375v33.738281c0 1.097656.886718 1.984375 1.984374 1.984375h24.808594c1.097656 0 1.984375-.886719 1.984375-1.984375v-27.785156zm0 0" fill="url(#g)"/><path d="m10.914062 4.34375c-1.097656 0-1.984374.886719-1.984374 1.984375v.496094c0-1.097657.886718-1.984375 1.984374-1.984375h19.351563l-.496094-.496094zm0 0" fill="#fff" fill-opacity=".392157"/><path d="m37.707031 12.28125-7.9375-7.9375v5.953125c0 1.101563.882813 1.984375 1.984375 1.984375zm0 0" fill="url(#h)"/><path d="m8.929688 39.570312v.496094c0 1.097656.886718 1.984375 1.984374 1.984375h24.808594c1.097656 0 1.984375-.886719 1.984375-1.984375v-.496094c0 1.097657-.886719 1.984376-1.984375 1.984376h-24.808594c-1.097656 0-1.984374-.886719-1.984374-1.984376zm0 0" fill-opacity=".235294"/><path d="m23.320312 14.265625c-3.851562 0-6.949218 2.214844-6.949218 4.960937v12.40625c0 .742188 3.472656.742188 3.472656 0v-5.457031h4.964844c1.238281 0 1.238281-2.976562 0-2.976562h-4.964844v-2.480469c0-1.375 1.550781-2.484375 3.476562-2.484375 1.683594 0 3.082032.851563 3.402344 1.984375.191406.621094 1.230469.492188 1.804688.5.960937 0 1.738281-.222656 1.738281-.5v-.992188c0-2.746093-3.097656-4.960937-6.945313-4.960937zm0 0" fill="url(#i)"/><path d="m23.320312 14.40625c-3.851562 0-6.949218 2.214844-6.949218 4.960938v.25c0-2.75 3.097656-4.960938 6.949218-4.960938 3.847657 0 6.945313 2.210938 6.945313 4.960938v-.25c0-2.746094-3.097656-4.960938-6.945313-4.960938zm-3.476562 8.933594v.246094h4.964844c.582031 0 .890625.664062.925781 1.363281.035156-.78125-.273437-1.609375-.925781-1.609375zm0 0" fill="#fff" fill-opacity=".392157"/><path d="m23.320312 18.234375c-1.925781 0-3.476562 1.109375-3.476562 2.484375v.742188c0-1.375 1.550781-2.480469 3.476562-2.480469 1.683594 0 3.082032.847656 3.402344 1.984375.191406.621094 1.230469.492187 1.804688.496094.960937 0 1.738281-.222657 1.738281-.496094v-.746094c0 .277344-.777344.5-1.738281.5-.574219-.007812-1.613282.121094-1.804688-.5-.320312-1.132812-1.71875-1.984375-3.402344-1.984375zm2.390626 6.824219c-.085938.601562-.386719 1.117187-.902344 1.117187h-4.964844v.742188h4.964844c.722656 0 1.023437-1.015625.902344-1.859375zm-9.339844 6.574218v.742188c0 .746094 3.472656.746094 3.472656 0v-.742188c0 .742188-3.472656.742188-3.472656 0zm0 0" fill-opacity=".235294"/><path d="m23.320312 14.125c-1.953124 0-3.714843.5625-5 1.476562-1.28125.917969-2.089843 2.199219-2.089843 3.625v12.40625c0 .148438.089843.269532.207031.355469.117188.085938.265625.148438.4375.199219.347656.097656.789062.144531 1.234375.144531s.886719-.046875 1.230469-.144531c.175781-.050781.324218-.113281.441406-.199219.113281-.085937.203125-.207031.203125-.355469v-5.316406h4.824219c.363281 0 .648437-.230468.820312-.539062.167969-.308594.25-.699219.25-1.089844 0-.394531-.082031-.785156-.25-1.09375-.171875-.308594-.457031-.535156-.820312-.535156h-4.824219v-2.339844c0-.636719.359375-1.214844.957031-1.644531.601563-.425781 1.441406-.699219 2.378906-.699219 1.636719 0 2.972657.835938 3.265626 1.882812v.003907h.003906c.058594.191406.1875.332031.347656.417969.15625.089843.339844.136718.527344.160156.375.046875.785156.015625 1.0625.019531.492187 0 .9375-.058594 1.269531-.152344.164063-.046875.304687-.105469.410156-.175781.109375-.074219.199219-.175781.199219-.3125v-.992188c0-1.425781-.808594-2.707031-2.089844-3.625-1.28125-.914062-3.046875-1.476562-4.996094-1.476562zm0 .28125c1.894532 0 3.605469.546875 4.832032 1.425781 1.226562.875 1.972656 2.074219 1.972656 3.394531v.992188c0 .003906-.007812.03125-.074219.078125-.070312.046875-.183593.097656-.332031.140625-.296875.082031-.71875.136719-1.191406.136719-.296875 0-.695313.027343-1.027344-.015625-.167969-.019532-.316406-.058594-.425781-.121094s-.179688-.140625-.21875-.257812l.003906.003906c-.34375-1.222656-1.808594-2.089844-3.539063-2.089844-.992187 0-1.886718.285156-2.542968.753906-.652344.46875-1.074219 1.128906-1.074219 1.871094v2.621094h5.105469c.253906 0 .433594.140625.574218.390625.136719.25.214844.601562.214844.957031 0 .351562-.078125.703125-.214844.953125-.140624.25-.320312.394531-.574218.394531h-5.105469v5.597656c0 .039063-.015625.074219-.089844.128907-.074219.054687-.195312.109375-.347656.152343-.308594.089844-.730469.136719-1.15625.136719s-.851563-.046875-1.15625-.136719c-.152344-.042968-.273437-.097656-.347656-.152343-.074219-.054688-.09375-.089844-.09375-.128907v-12.40625c0-1.320312.746093-2.519531 1.972656-3.394531 1.226563-.878906 2.9375-1.425781 4.835937-1.425781zm0 0" fill="#212121"/><path d="m29.769531 10.296875v.496094c0 1.101562.882813 1.984375 1.984375 1.984375h5.953125v-.496094h-5.953125c-1.101562 0-1.984375-.882812-1.984375-1.984375zm0 0" fill-opacity=".235294"/><path d="m10.914062 4.203125c-1.175781 0-2.125.949219-2.125 2.125v33.738281c0 1.175782.949219 2.125 2.125 2.125h24.808594c1.175782 0 2.125-.949218 2.125-2.125v-27.785156s0 0 0-.003906 0-.007813 0-.011719c-.003906-.007813-.003906-.011719-.003906-.015625s-.003906-.007812-.003906-.011719c0-.007812-.003906-.011719-.003906-.015625-.003907-.003906-.003907-.007812-.007813-.011718-.003906-.003907-.003906-.007813-.007813-.011719-.003906-.003907-.007812-.007813-.007812-.011719 0 0 0 0-.003906 0 0 0 0-.003906-.003906-.003906l-7.9375-7.9375c-.003907-.003906-.007813-.007813-.007813-.011719-.003906-.003906-.007813-.003906-.011719-.007813-.003906 0-.003906 0-.003906 0-.023438-.015624-.050781-.023437-.074219-.023437zm0 .28125h18.714844v5.8125c0 1.175781.949219 2.125 2.125 2.125h5.8125v27.644531c0 1.023438-.820312 1.84375-1.84375 1.84375h-24.808594c-1.023437 0-1.84375-.820312-1.84375-1.84375v-33.738281c0-1.023437.820313-1.84375 1.84375-1.84375zm18.996094.199219 7.457032 7.457031h-5.613282c-1.023437 0-1.84375-.820313-1.84375-1.84375zm0 0" fill="#212121"/></svg>

<?xml version="1.0" encoding="UTF-8"?>
<svg xmlns="http://www.w3.org/2000/svg" xmlns:xlink="http://www.w3.org/1999/xlink" width="48px" height="48px" viewBox="0 0 48 48" version="1.1">
<defs>
<linearGradient id="linear0" gradientUnits="userSpaceOnUse" x1="254" y1="233.5" x2="254" y2="254.666672" gradientTransform="matrix(0.093759,0,0,0.093759,-0.00000572259,20.158178)">
<stop offset="0" style="stop-color:rgb(0%,0%,0%);stop-opacity:0.27451;"/>
<stop offset="1" style="stop-color:rgb(0%,0%,0%);stop-opacity:0;"/>
</linearGradient>
<radialGradient id="radial0" gradientUnits="userSpaceOnUse" cx="450.908936" cy="189.579361" fx="450.908936" fy="189.579361" r="21.166656" gradientTransform="matrix(0.000000261256,-0.117199,-0.210958,-0.000000152308,73.234568,95.392999)">
<stop offset="0" style="stop-color:rgb(0%,0%,0%);stop-opacity:0.313726;"/>
<stop offset="0.222222" style="stop-color:rgb(0%,0%,0%);stop-opacity:0.27451;"/>
<stop offset="1" style="stop-color:rgb(0%,0%,0%);stop-opacity:0;"/>
</radialGradient>
<radialGradient id="radial1" gradientUnits="userSpaceOnUse" cx="450.908936" cy="189.579361" fx="450.908936" fy="189.579361" r="21.166656" gradientTransform="matrix(-0.000000261256,0.117199,0.210958,0.000000152308,-26.597299,-11.291218)">
<stop offset="0" style="stop-color:rgb(0%,0%,0%);stop-opacity:0.313726;"/>
<stop offset="0.222222" style="stop-color:rgb(0%,0%,0%);stop-opacity:0.27451;"/>
<stop offset="1" style="stop-color:rgb(0%,0%,0%);stop-opacity:0;"/>
</radialGradient>
<radialGradient id="radial2" gradientUnits="userSpaceOnUse" cx="450.908936" cy="189.579361" fx="450.908936" fy="189.579361" r="21.166656" gradientTransform="matrix(-0.000000261256,-0.117199,0.210958,-0.000000152308,-26.597299,95.392999)">
<stop offset="0" style="stop-color:rgb(0%,0%,0%);stop-opacity:0.313726;"/>
<stop offset="0.222222" style="stop-color:rgb(0%,0%,0%);stop-opacity:0.27451;"/>
<stop offset="1" style="stop-color:rgb(0%,0%,0%);stop-opacity:0;"/>
</radialGradient>
<radialGradient id="radial3" gradientUnits="userSpaceOnUse" cx="450.908936" cy="189.579361" fx="450.908936" fy="189.579361" r="21.166656" gradientTransform="matrix(0.000000261256,0.117199,-0.210958,0.000000152308,73.234565,-11.291219)">
<stop offset="0" style="stop-color:rgb(0%,0%,0%);stop-opacity:0.313726;"/>
<stop offset="0.222222" style="stop-color:rgb(0%,0%,0%);stop-opacity:0.27451;"/>
<stop offset="1" style="stop-color:rgb(0%,0%,0%);stop-opacity:0;"/>
</radialGradient>
<linearGradient id="linear1" gradientUnits="userSpaceOnUse" x1="248.708344" y1="233.5" x2="243.416672" y2="-168.666656" gradientTransform="matrix(0.093759,0,0,0.093759,0,20.158174)">
<stop offset="0" style="stop-color:rgb(25.882354%,64.705884%,96.078432%);stop-opacity:1;"/>
<stop offset="1" style="stop-color:rgb(39.215687%,70.980394%,96.470588%);stop-opacity:1;"/>
</linearGradient>
<linearGradient id="linear2" gradientUnits="userSpaceOnUse" x1="275.166656" y1="-84.000496" x2="275.166656" y2="-486.167145" gradientTransform="matrix(-0.093759,0.000000000000000011,-0.000000000000000011,-0.093759,67.475195,-3.531633)">
<stop offset="0" style="stop-color:rgb(38.039216%,38.039216%,38.039216%);stop-opacity:1;"/>
<stop offset="1" style="stop-color:rgb(25.882354%,25.882354%,25.882354%);stop-opacity:1;"/>
</linearGradient>
<linearGradient id="linear3" gradientUnits="userSpaceOnUse" x1="940" y1="1295.118164" x2="940" y2="575.118103" gradientTransform="matrix(0.0248071,0,0,0.0248071,0,0.00000000000000282)">
<stop offset="0" style="stop-color:rgb(25.882354%,25.882354%,25.882354%);stop-opacity:1;"/>
<stop offset="1" style="stop-color:rgb(38.039216%,38.039216%,38.039216%);stop-opacity:1;"/>
</linearGradient>
</defs>
<g id="surface1">
<path style=" stroke:none;fill-rule:nonzero;fill:rgb(0%,0%,0%);fill-opacity:0.196078;" d="M 11.039062 42.050781 C 9.941406 42.050781 9.054688 41.164062 9.054688 40.066406 L 9.054688 39.816406 C 9.054688 40.917969 9.941406 41.804688 11.039062 41.804688 L 35.722656 41.804688 C 36.820312 41.804688 37.707031 40.917969 37.707031 39.816406 L 37.707031 40.066406 C 37.707031 41.164062 36.820312 42.050781 35.722656 42.050781 Z M 11.039062 42.050781 "/>
<path style=" stroke:none;fill-rule:nonzero;fill:url(#linear0);" d="M 12.898438 42.050781 L 33.738281 42.050781 L 33.738281 44.035156 L 12.898438 44.035156 Z M 12.898438 42.050781 "/>
<path style=" stroke:none;fill-rule:nonzero;fill:url(#radial0);" d="M 33.738281 42.050781 L 37.707031 42.050781 L 37.707031 40.066406 L 33.738281 40.066406 Z M 33.738281 42.050781 "/>
<path style=" stroke:none;fill-rule:nonzero;fill:url(#radial1);" d="M 12.898438 42.050781 L 8.929688 42.050781 L 8.929688 44.035156 L 12.898438 44.035156 Z M 12.898438 42.050781 "/>
<path style=" stroke:none;fill-rule:nonzero;fill:url(#radial2);" d="M 12.898438 42.050781 L 8.929688 42.050781 L 8.929688 40.066406 L 12.898438 40.066406 Z M 12.898438 42.050781 "/>
<path style=" stroke:none;fill-rule:nonzero;fill:url(#radial3);" d="M 33.738281 42.050781 L 37.707031 42.050781 L 37.707031 44.035156 L 33.738281 44.035156 Z M 33.738281 42.050781 "/>
<path style=" stroke:none;fill-rule:nonzero;fill:url(#linear1);" d="M 29.769531 4.34375 L 10.914062 4.34375 C 9.816406 4.34375 8.929688 5.230469 8.929688 6.328125 L 8.929688 40.066406 C 8.929688 41.164062 9.816406 42.050781 10.914062 42.050781 L 35.722656 42.050781 C 36.820312 42.050781 37.707031 41.164062 37.707031 40.066406 L 37.707031 12.28125 Z M 29.769531 4.34375 "/>
<path style=" stroke:none;fill-rule:nonzero;fill:rgb(100%,100%,100%);fill-opacity:0.392157;" d="M 10.914062 4.34375 C 9.816406 4.34375 8.929688 5.230469 8.929688 6.328125 L 8.929688 6.824219 C 8.929688 5.726562 9.816406 4.839844 10.914062 4.839844 L 30.265625 4.839844 L 29.769531 4.34375 Z M 10.914062 4.34375 "/>
<path style=" stroke:none;fill-rule:nonzero;fill:url(#linear2);" d="M 37.707031 12.28125 L 29.769531 4.34375 L 29.769531 10.296875 C 29.769531 11.398438 30.652344 12.28125 31.753906 12.28125 Z M 37.707031 12.28125 "/>
<path style=" stroke:none;fill-rule:nonzero;fill:rgb(0%,0%,0%);fill-opacity:0.235294;" d="M 8.929688 39.570312 L 8.929688 40.066406 C 8.929688 41.164062 9.816406 42.050781 10.914062 42.050781 L 35.722656 42.050781 C 36.820312 42.050781 37.707031 41.164062 37.707031 40.066406 L 37.707031 39.570312 C 37.707031 40.667969 36.820312 41.554688 35.722656 41.554688 L 10.914062 41.554688 C 9.816406 41.554688 8.929688 40.667969 8.929688 39.570312 Z M 8.929688 39.570312 "/>
<path style=" stroke:none;fill-rule:nonzero;fill:url(#linear3);" d="M 23.320312 14.265625 C 19.46875 14.265625 16.371094 16.480469 16.371094 19.226562 L 16.371094 31.632812 C 16.371094 32.375 19.84375 32.375 19.84375 31.632812 L 19.84375 26.175781 L 24.808594 26.175781 C 26.046875 26.175781 26.046875 23.199219 24.808594 23.199219 L 19.84375 23.199219 L 19.84375 20.71875 C 19.84375 19.34375 21.394531 18.234375 23.320312 18.234375 C 25.003906 18.234375 26.402344 19.085938 26.722656 20.21875 C 26.914062 20.839844 27.953125 20.710938 28.527344 20.71875 C 29.488281 20.71875 30.265625 20.496094 30.265625 20.21875 L 30.265625 19.226562 C 30.265625 16.480469 27.167969 14.265625 23.320312 14.265625 Z M 23.320312 14.265625 "/>
<path style=" stroke:none;fill-rule:nonzero;fill:rgb(100%,100%,100%);fill-opacity:0.392157;" d="M 23.320312 14.40625 C 19.46875 14.40625 16.371094 16.621094 16.371094 19.367188 L 16.371094 19.617188 C 16.371094 16.867188 19.46875 14.65625 23.320312 14.65625 C 27.167969 14.65625 30.265625 16.867188 30.265625 19.617188 L 30.265625 19.367188 C 30.265625 16.621094 27.167969 14.40625 23.320312 14.40625 Z M 19.84375 23.339844 L 19.84375 23.585938 L 24.808594 23.585938 C 25.390625 23.585938 25.699219 24.25 25.734375 24.949219 C 25.769531 24.167969 25.460938 23.339844 24.808594 23.339844 Z M 19.84375 23.339844 "/>
<path style=" stroke:none;fill-rule:nonzero;fill:rgb(0%,0%,0%);fill-opacity:0.235294;" d="M 23.320312 18.234375 C 21.394531 18.234375 19.84375 19.34375 19.84375 20.71875 L 19.84375 21.460938 C 19.84375 20.085938 21.394531 18.980469 23.320312 18.980469 C 25.003906 18.980469 26.402344 19.828125 26.722656 20.964844 C 26.914062 21.585938 27.953125 21.457031 28.527344 21.460938 C 29.488281 21.460938 30.265625 21.238281 30.265625 20.964844 L 30.265625 20.21875 C 30.265625 20.496094 29.488281 20.71875 28.527344 20.71875 C 27.953125 20.710938 26.914062 20.839844 26.722656 20.21875 C 26.402344 19.085938 25.003906 18.234375 23.320312 18.234375 Z M 25.710938 25.058594 C 25.625 25.660156 25.324219 26.175781 24.808594 26.175781 L 19.84375 26.175781 L 19.84375 26.917969 L 24.808594 26.917969 C 25.53125 26.917969 25.832031 25.902344 25.710938 25.058594 Z M 16.371094 31.632812 L 16.371094 32.375 C 16.371094 33.121094 19.84375 33.121094 19.84375 32.375 L 19.84375 31.632812 C 19.84375 32.375 16.371094 32.375 16.371094 31.632812 Z M 16.371094 31.632812 "/>
<path style=" stroke:none;fill-rule:nonzero;fill:rgb(12.941177%,12.941177%,12.941177%);fill-opacity:1;" d="M 23.320312 14.125 C 21.367188 14.125 19.605469 14.6875 18.320312 15.601562 C 17.039062 16.519531 16.230469 17.800781 16.230469 19.226562 L 16.230469 31.632812 C 16.230469 31.78125 16.320312 31.902344 16.4375 31.988281 C 16.554688 32.074219 16.703125 32.136719 16.875 32.1875 C 17.222656 32.285156 17.664062 32.332031 18.109375 32.332031 C 18.554688 32.332031 18.996094 32.285156 19.339844 32.1875 C 19.515625 32.136719 19.664062 32.074219 19.78125 31.988281 C 19.894531 31.902344 19.984375 31.78125 19.984375 31.632812 L 19.984375 26.316406 L 24.808594 26.316406 C 25.171875 26.316406 25.457031 26.085938 25.628906 25.777344 C 25.796875 25.46875 25.878906 25.078125 25.878906 24.6875 C 25.878906 24.292969 25.796875 23.902344 25.628906 23.59375 C 25.457031 23.285156 25.171875 23.058594 24.808594 23.058594 L 19.984375 23.058594 L 19.984375 20.71875 C 19.984375 20.082031 20.34375 19.503906 20.941406 19.074219 C 21.542969 18.648438 22.382812 18.375 23.320312 18.375 C 24.957031 18.375 26.292969 19.210938 26.585938 20.257812 L 26.585938 20.261719 L 26.589844 20.261719 C 26.648438 20.453125 26.777344 20.59375 26.9375 20.679688 C 27.09375 20.769531 27.277344 20.816406 27.464844 20.839844 C 27.839844 20.886719 28.25 20.855469 28.527344 20.859375 C 29.019531 20.859375 29.464844 20.800781 29.796875 20.707031 C 29.960938 20.660156 30.101562 20.601562 30.207031 20.53125 C 30.316406 20.457031 30.40625 20.355469 30.40625 20.21875 L 30.40625 19.226562 C 30.40625 17.800781 29.597656 16.519531 28.316406 15.601562 C 27.035156 14.6875 25.269531 14.125 23.320312 14.125 Z M 23.320312 14.40625 C 25.214844 14.40625 26.925781 14.953125 28.152344 15.832031 C 29.378906 16.707031 30.125 17.90625 30.125 19.226562 L 30.125 20.21875 C 30.125 20.222656 30.117188 20.25 30.050781 20.296875 C 29.980469 20.34375 29.867188 20.394531 29.71875 20.4375 C 29.421875 20.519531 29 20.574219 28.527344 20.574219 C 28.230469 20.574219 27.832031 20.601562 27.5 20.558594 C 27.332031 20.539062 27.183594 20.5 27.074219 20.4375 C 26.964844 20.375 26.894531 20.296875 26.855469 20.179688 L 26.859375 20.183594 C 26.515625 18.960938 25.050781 18.09375 23.320312 18.09375 C 22.328125 18.09375 21.433594 18.378906 20.777344 18.847656 C 20.125 19.316406 19.703125 19.976562 19.703125 20.71875 L 19.703125 23.339844 L 24.808594 23.339844 C 25.0625 23.339844 25.242188 23.480469 25.382812 23.730469 C 25.519531 23.980469 25.597656 24.332031 25.597656 24.6875 C 25.597656 25.039062 25.519531 25.390625 25.382812 25.640625 C 25.242188 25.890625 25.0625 26.035156 24.808594 26.035156 L 19.703125 26.035156 L 19.703125 31.632812 C 19.703125 31.671875 19.6875 31.707031 19.613281 31.761719 C 19.539062 31.816406 19.417969 31.871094 19.265625 31.914062 C 18.957031 32.003906 18.535156 32.050781 18.109375 32.050781 C 17.683594 32.050781 17.257812 32.003906 16.953125 31.914062 C 16.800781 31.871094 16.679688 31.816406 16.605469 31.761719 C 16.53125 31.707031 16.511719 31.671875 16.511719 31.632812 L 16.511719 19.226562 C 16.511719 17.90625 17.257812 16.707031 18.484375 15.832031 C 19.710938 14.953125 21.421875 14.40625 23.320312 14.40625 Z M 23.320312 14.40625 "/>
<path style=" stroke:none;fill-rule:nonzero;fill:rgb(0%,0%,0%);fill-opacity:0.235294;" d="M 29.769531 10.296875 L 29.769531 10.792969 C 29.769531 11.894531 30.652344 12.777344 31.753906 12.777344 L 37.707031 12.777344 L 37.707031 12.28125 L 31.753906 12.28125 C 30.652344 12.28125 29.769531 11.398438 29.769531 10.296875 Z M 29.769531 10.296875 "/>
<path style=" stroke:none;fill-rule:nonzero;fill:rgb(12.941177%,12.941177%,12.941177%);fill-opacity:1;" d="M 10.914062 4.203125 C 9.738281 4.203125 8.789062 5.152344 8.789062 6.328125 L 8.789062 40.066406 C 8.789062 41.242188 9.738281 42.191406 10.914062 42.191406 L 35.722656 42.191406 C 36.898438 42.191406 37.847656 41.242188 37.847656 40.066406 L 37.847656 12.28125 C 37.847656 12.28125 37.847656 12.28125 37.847656 12.277344 C 37.847656 12.273438 37.847656 12.269531 37.847656 12.265625 C 37.84375 12.257812 37.84375 12.253906 37.84375 12.25 C 37.84375 12.246094 37.839844 12.242188 37.839844 12.238281 C 37.839844 12.230469 37.835938 12.226562 37.835938 12.222656 C 37.832031 12.21875 37.832031 12.214844 37.828125 12.210938 C 37.824219 12.207031 37.824219 12.203125 37.820312 12.199219 C 37.816406 12.195312 37.8125 12.191406 37.8125 12.1875 C 37.8125 12.1875 37.8125 12.1875 37.808594 12.1875 C 37.808594 12.1875 37.808594 12.183594 37.804688 12.183594 L 29.867188 4.246094 C 29.863281 4.242188 29.859375 4.238281 29.859375 4.234375 C 29.855469 4.230469 29.851562 4.230469 29.847656 4.226562 C 29.84375 4.226562 29.84375 4.226562 29.84375 4.226562 C 29.820312 4.210938 29.792969 4.203125 29.769531 4.203125 Z M 10.914062 4.484375 L 29.628906 4.484375 L 29.628906 10.296875 C 29.628906 11.472656 30.578125 12.421875 31.753906 12.421875 L 37.566406 12.421875 L 37.566406 40.066406 C 37.566406 41.089844 36.746094 41.910156 35.722656 41.910156 L 10.914062 41.910156 C 9.890625 41.910156 9.070312 41.089844 9.070312 40.066406 L 9.070312 6.328125 C 9.070312 5.304688 9.890625 4.484375 10.914062 4.484375 Z M 29.910156 4.683594 L 37.367188 12.140625 L 31.753906 12.140625 C 30.730469 12.140625 29.910156 11.320312 29.910156 10.296875 Z M 29.910156 4.683594 "/>
</g>
</svg>
